src/pos-icons/flask-plus.svg

<svg height="24" viewBox="0 0 24 24" width="24" xmlns="http://www.w3.org/2000/svg"><path d="m18 14h2v3h3v2h-3v3h-2v-3h-3v-2h3zm-12 8c-1.66 0-3-1.34-3-3 0-.6.18-1.16.5-1.64l5.5-9.55v-1.81c-.55 0-1-.45-1-1v-1c0-1.1.9-2 2-2h4c1.11 0 2 .9 2 2v1c0 .55-.45 1-1 1v1.81l2.5 4.37c-2 .52-3.64 2.08-4.24 4.08l-4.33-4.33-3.75 6.5c-.11.16-.18.36-.18.57 0 .55.45 1 1 1h7.34c.27.75.66 1.42 1.19 2zm7-12c-.55 0-1 .45-1 1s.45 1 1 1 1-.45 1-1-.45-1-1-1z"/></svg>

<?xml version="1.0" encoding="UTF-8"?><!DOCTYPE svg PUBLIC "-//W3C//DTD SVG 1.1//EN" "http://www.w3.org/Graphics/SVG/1.1/DTD/svg11.dtd"><svg xmlns="http://www.w3.org/2000/svg" xmlns:xlink="http://www.w3.org/1999/xlink" version="1.1" id="mdi-flask-plus" width="24" height="24" viewBox="0 0 24 24"><path d="M18 14H20V17H23V19H20V22H18V19H15V17H18V14M6 22C4.34 22 3 20.66 3 19C3 18.4 3.18 17.84 3.5 17.36L9 7.81V6C8.45 6 8 5.55 8 5V4C8 2.9 8.9 2 10 2H14C15.11 2 16 2.9 16 4V5C16 5.55 15.55 6 15 6V7.81L17.5 12.18C15.5 12.7 13.86 14.26 13.26 16.26L8.93 11.93L5.18 18.43C5.07 18.59 5 18.79 5 19C5 19.55 5.45 20 6 20H13.34C13.61 20.75 14 21.42 14.53 22H6M13 10C12.45 10 12 10.45 12 11C12 11.55 12.45 12 13 12C13.55 12 14 11.55 14 11C14 10.45 13.55 10 13 10Z" /></svg>
